symbols/web/sd_card_alert/materialsymbolsoutlined/sd_card_alert_wght500_20px.svg

<svg xmlns="http://www.w3.org/2000/svg" height="20" width="20"><path d="M9.083 10.854h1.834v-4.25H9.083ZM10 14.312q.396 0 .677-.281t.281-.677q0-.375-.281-.656T10 12.417q-.396 0-.677.281t-.281.656q0 .396.281.677t.677.281ZM5.146 18.5q-.834 0-1.406-.573-.573-.573-.573-1.406V6.562L8.229 1.5h6.625q.834 0 1.406.573.573.573.573 1.406v13.042q0 .833-.573 1.406-.572.573-1.406.573Zm0-1.979h9.708V3.479H9.083L5.146 7.417v9.104Zm0 0h9.708Z"/></svg>

<svg xmlns="http://www.w3.org/2000/svg" height="20" width="20"><path d="M9.083 10.854H10.917V6.604H9.083ZM10 14.312Q10.396 14.312 10.677 14.031Q10.958 13.75 10.958 13.354Q10.958 12.979 10.677 12.698Q10.396 12.417 10 12.417Q9.604 12.417 9.323 12.698Q9.042 12.979 9.042 13.354Q9.042 13.75 9.323 14.031Q9.604 14.312 10 14.312ZM5.146 18.5Q4.312 18.5 3.74 17.927Q3.167 17.354 3.167 16.521V6.562L8.229 1.5H14.854Q15.688 1.5 16.26 2.073Q16.833 2.646 16.833 3.479V16.521Q16.833 17.354 16.26 17.927Q15.688 18.5 14.854 18.5ZM5.146 16.521H14.854Q14.854 16.521 14.854 16.521Q14.854 16.521 14.854 16.521V3.479Q14.854 3.479 14.854 3.479Q14.854 3.479 14.854 3.479H9.083L5.146 7.417V16.521Q5.146 16.521 5.146 16.521Q5.146 16.521 5.146 16.521ZM5.146 16.521Q5.146 16.521 5.146 16.521Q5.146 16.521 5.146 16.521H9.083H14.854Q14.854 16.521 14.854 16.521Q14.854 16.521 14.854 16.521Q14.854 16.521 14.854 16.521Q14.854 16.521 14.854 16.521Z"/></svg>
